X:172
T:Grannas flickor
R:sl\"angpolska
H:han hade den efter sin far, Anders Fredrik Lindell, fr{\aa}n Askersund
H:Se \"aven #14, #51, #150, #208
A:N\"arke
B:SvL \"Ogl 268, efter Frans August Lindell, Motala
Z:id:hn-sp-172
M:3/4
L:1/16
K:Am ^f
A2AB c2cB A2AB | cBcd e2z2 c4 | e3f g2ga f2fg | a2ag e2ed cdcB |
A2AB cdcB A2AB | cBcd e2z2 c4 | e3f g2ag f2ef | a2ag e2z2 z4 :|
|: e3f g2ga f2fg | a2(3gag e4 c4 | A3c/e/ A3c/e/ A3c/e/ |
(5gfgag d2d2 B2B2 | cAAc e2c2 c2B2 | B2G2 [B2G2]A2 A4 :|
<end>
<start>
